!!!OTL: In Festo Dedicationis Ecclesiae
**kern
*staff1
=--
*clefC1
*k[b-]
0r
=-
1b-
2cc
2cc
=-
1dd
1.cc
2b-
1a
=-
1g
1b-
=-
2cc
2cc
1dd
=-
1cc
1.dd
2b-
1cc
=-
1dd
1.dd
2cc
2b-
2cc
=-
!!linebreak:original
1dd
1cc
=-
1b-
2cc
2a
=-
1b-
1cc
=-
1b-
2a
2a
=-
1b-
1cc
=-
!LO:TX:Y=-41:t=P
1dd
0dd
(2cc
2b-)
=-
1g
1a
=-
!LO:TX:Y=-43:t=P
1g
1b-
=-
1.cc
2cc
=-
1dd
0ee-
0dd
=-
!!linebreak:original
*k[]
0r
=-
1cc
2cc
2dd
=-
2ee
2dd
2cc
2b
=-
2a
2g
1a
=-
!LO:TX:Y=-43:t=P
1b
1cc
=-
0cc
=-
1b
1cc
=-
0dd
=-
!LO:TX:Y=-45:t=P
0cc
=-
!!linebreak:original
1cc
2cc
2b
=-
2a
2g
2cc
2b
=-
1a
1g
=-
!LO:TX:Y=-40:t=P
1cc
1cc
=-
1b
1cc
=-
1a
1g
=-
0a
=-
0g
=-=
*-
!!title: @{OTL}, @{GTL}, ed. @{ENC}
!!!pag:
!!!GTL: Hymnbook C
!!!EFL: 
!!!YEM: Creative Commons CC/BY/NC/SA 4.0
!!!ENC: Marcin Konik
!!!END: 2015-0m-dd
!!!EED: Marcin Konik
!!!EEV: 
!!!ONB: Encoded in vim by Marcin Konik
!!!CharacterEncoding: utf-8
!!!RDF**kern: l=long note in original notation
!!!RDF**kern: i=editorial accidental
!!muse2ps: z14jc180F
!!!COM: Anonim
!!!CDT: [?]
!!!TXO: Polish
!!!ODT: 
!!!GTL: Hymnbook C
!!!ARL: Opactwo św. Wojciecha, Staniątki 
!!!voices:	1
